radiology-box-outline.svg

<svg fill="currentColor" viewBox="0 0 24 24"><path d="M19 5v14H5V5zm0-2H5c-1.11 0-2 .89-2 2v14c0 1.11.89 2 2 2h14c1.11 0 2-.89 2-2V5c0-1.11-.89-2-2-2m-7 3c.55 0 1 .45 1 1v1h3.17c.18.31.33.65.49 1H13v1h4c.1.33.17.67.19 1H13v1h4.2c-.04.35-.05.69-.1 1H13v1h4s-.06 3-1.5 3c-1.35 0-1-1.53-2.5-2v2c0 .55-.45 1-1 1s-1-.45-1-1v-2c-1.5.47-1.15 2-2.5 2C7.06 17 7 14 7 14h4v-1H6.9c-.05-.31-.06-.65-.1-1H11v-1H6.81c.02-.33.1-.67.19-1h4V9H7.34c.16-.35.31-.69.49-1H11V7c0-.55.45-1 1-1"/></svg>

<svg  viewBox="0 0 24 24" fill="currentColor"><path  d="M19 5V19H5V5H19M19 3H5C3.89 3 3 3.89 3 5V19C3 20.11 3.89 21 5 21H19C20.11 21 21 20.11 21 19V5C21 3.89 20.11 3 19 3M12 6C12.55 6 13 6.45 13 7V8H16.17C16.35 8.31 16.5 8.65 16.66 9H13V10H17C17.1 10.33 17.17 10.67 17.19 11H13V12H17.2C17.16 12.35 17.15 12.69 17.1 13H13V14H17C17 14 16.94 17 15.5 17C14.15 17 14.5 15.47 13 15V17C13 17.55 12.55 18 12 18S11 17.55 11 17V15C9.5 15.47 9.85 17 8.5 17C7.06 17 7 14 7 14H11V13H6.9C6.85 12.69 6.84 12.35 6.8 12H11V11H6.81C6.83 10.67 6.91 10.33 7 10H11V9H7.34C7.5 8.65 7.65 8.31 7.83 8H11V7C11 6.45 11.45 6 12 6Z"/></svg>
